icon.svg

<svg width="128" height="128" viewBox="0 0 128 128" fill="none" xmlns="http://www.w3.org/2000/svg">
<g clip-path="url(#clip0_2_42)">
<path fill-rule="evenodd" clip-rule="evenodd" d="M105.218 62.638H19.852C19.852 47.0292 26.0362 33.0582 35.7793 24.0096C39.4577 20.5768 45.4456 18.0531 49.8186 19.2186C50.2058 19.0122 41.5697 16.6256 41.9275 16.4104C45.077 14.5168 51.1351 15.7301 56.5573 17.7004C52.4575 14.9429 50.0193 11.3085 48.5743 8.80139C57.6823 8.45129 63.7568 11.7688 67.8616 14.8016L66.3706 9.26843C70.9014 12.277 79.3939 16.7015 83.9536 19.7776C96.6693 28.3558 105.218 44.3381 105.218 62.638Z" fill="#FF8702"/>
<path fill-rule="evenodd" clip-rule="evenodd" d="M100.905 4.6367C97.9331 3.06973 79.7037 9.74685 72.2997 22.1173C75.598 26.7706 82.5994 26.1007 86.9483 25.0055C87.093 26.8586 86.4941 28.7203 86.3494 30.3479C87.7051 30.8712 88.1491 30.9257 90.3665 30.3113C91.2809 33.5763 91.4574 37.7596 96.1179 38.5791C102.437 27.6277 104.193 6.37086 100.905 4.6367Z" fill="#313131"/>
<path fill-rule="evenodd" clip-rule="evenodd" d="M23.9488 4.719C26.9236 3.15029 45.1731 9.8348 52.5853 22.2189C49.2834 26.8774 42.0318 26.4052 37.5153 23.6732C37.5496 26.2787 37.9522 27.8066 38.8228 29.2846C37.2408 29.4397 36.1486 29.4122 34.138 28.6593C35.1628 31.5949 33.4064 37.8785 28.7407 38.699C22.4148 27.7355 20.6566 6.45507 23.9488 4.719Z" fill="#313131"/>
<mask id="mask0_2_42" style="mask-type:luminance" maskUnits="userSpaceOnUse" x="72" y="4" width="31" height="35">
<path d="M100.819 4.72225C97.8475 3.15527 79.6182 9.83239 72.2142 22.2028C75.5125 26.8561 82.5139 26.1862 86.8628 25.0911C87.0074 26.9441 86.4086 28.8059 86.2639 30.4334C87.6196 30.9567 88.0635 31.0113 90.281 30.3968C91.1954 33.6618 91.3719 37.8451 96.0324 38.6647C102.351 27.7133 104.108 6.4564 100.819 4.72225Z" fill="white"/>
</mask>
<g mask="url(#mask0_2_42)">
<path fill-rule="evenodd" clip-rule="evenodd" d="M98.9797 7.30341C97.8924 6.78623 92.2854 9.07497 89.13 11.98C82.7231 17.8785 88.4783 25.7954 71.9198 24.6656C75.5746 33.659 83.5485 37.0339 93.0945 39.2966C91.4702 27.9687 98.7168 27.4074 99.7551 15.2592C100.146 10.6798 99.8455 7.71517 98.9797 7.30341Z" fill="#EBDCCC"/>
</g>
<mask id="mask1_2_42" style="mask-type:luminance" maskUnits="userSpaceOnUse" x="22" y="4" width="31" height="35">
<path d="M24.0344 4.80465C27.0092 3.23594 45.2587 9.92045 52.6709 22.3046C49.369 26.963 42.1175 26.4909 37.601 23.7588C37.6352 26.3643 38.0379 27.8922 38.9085 29.3703C37.3265 29.5253 36.2342 29.4979 34.2236 28.7449C35.2485 31.6805 33.492 37.9642 28.8264 38.7846C22.5005 27.8211 20.7422 6.54072 24.0344 4.80465Z" fill="white"/>
</mask>
<g mask="url(#mask1_2_42)">
<path fill-rule="evenodd" clip-rule="evenodd" d="M25.9597 7.47267C27.0483 6.95491 32.6615 9.24619 35.8204 12.1544C42.2343 18.0594 36.4728 25.9852 53.0497 24.8541C49.3908 33.8574 41.408 37.2361 31.8515 39.5013C33.4776 28.1609 26.223 27.5989 25.1836 15.4373C24.7917 10.8527 25.093 7.88488 25.9597 7.47267Z" fill="#EBDCCC"/>
</g>
<path d="M48.7795 48.3246C51.9079 46.8234 53.4578 42.5765 52.2412 38.839C51.0247 35.1015 47.5025 33.2886 44.3741 34.7899C41.2458 36.2912 39.6959 40.538 40.9124 44.2755C42.1289 48.0131 45.6511 49.8259 48.7795 48.3246Z" fill="#313131"/>
<path d="M78.601 48.6633C81.5779 47.2348 83.0527 43.1936 81.8951 39.6371C80.7375 36.0807 77.3859 34.3556 74.4091 35.7842C71.4322 37.2127 69.9574 41.2539 71.115 44.8103C72.2726 48.3668 75.6242 50.0918 78.601 48.6633Z" fill="#313131"/>
<path fill-rule="evenodd" clip-rule="evenodd" d="M14.0642 54.2983V84.2869H3.52893L14.0642 54.2983Z" fill="#AD7E52" stroke="black" stroke-width="5" stroke-miterlimit="4.12" stroke-linecap="round"/>
<path d="M70.3407 56.0387H14.2146V125.5H70.3407V56.0387Z" fill="#EACB99" stroke="black" stroke-width="5" stroke-miterlimit="4.12" stroke-linecap="round"/>
<path d="M114.719 56.0387H72.9512V125.5H114.719V56.0387Z" fill="#EACB99" stroke="black" stroke-width="5" stroke-miterlimit="4.12" stroke-linecap="round"/>
<path fill-rule="evenodd" clip-rule="evenodd" d="M72.9512 56.0387H114.719V125.5H72.9508V119.303C89.9269 117.306 87.8306 118.457 97.8547 112.974C100.656 111.442 102.807 110.745 102.965 109.435C103.698 103.357 109.678 104.715 109.626 100.164C109.586 96.7208 106.562 95.7355 103.376 93.8782C99.5199 91.6309 97.1197 89.5717 86.8201 90.7451C81.2977 91.3742 79.3342 91.3501 79.2251 87.9395C78.922 78.4618 76.7983 77.8048 72.9512 72.2315V56.0387Z" fill="#AB8259"/>
<path d="M115.427 55.9879H73.6592L82.8859 84.5811H124.654L115.427 55.9879Z" fill="#EACB99" stroke="black" stroke-width="5.12537" stroke-miterlimit="4.12" stroke-linecap="round"/>
<path fill-rule="evenodd" clip-rule="evenodd" d="M104.938 55.9879H115.427L124.654 84.5811H99.8956C119.877 74.2794 110.795 61.4673 104.938 55.9879Z" fill="#AA8259"/>
<path fill-rule="evenodd" clip-rule="evenodd" d="M70.3407 108.986V125.5H53.8199C62.1377 122.917 67.3386 117.893 70.3407 108.986Z" fill="#AB8259"/>
<path fill-rule="evenodd" clip-rule="evenodd" d="M42.9863 125.5H14.2146V119.022C42.213 120.449 31.9543 120.276 42.9863 125.5Z" fill="#AB8259"/>
<path d="M31.3191 52.5552C34.9905 68.8779 46.3131 68.5329 46.5393 52.7093L31.3191 52.5552Z" fill="#FF8702"/>
<path d="M31.3191 52.5552C34.9905 68.8779 46.3131 68.5329 46.5393 52.7093" stroke="#313131" stroke-width="4" stroke-linecap="round" stroke-linejoin="round"/>
<path d="M59.6177 52.5552C59.9365 68.2246 71.1446 71.2768 75.8964 52.7093L59.6177 52.5552Z" fill="#FF8702"/>
<path d="M59.6177 52.5552C59.9365 68.2246 71.1446 71.2768 75.8964 52.7093" stroke="#313131" stroke-width="4" stroke-linecap="round" stroke-linejoin="round"/>
<circle cx="29.4612" cy="86.097" r="4.98" transform="rotate(-23.6431 29.4612 86.097)" stroke="#98594D" stroke-width="5"/>
<circle cx="37.097" cy="103.539" r="4.98" transform="rotate(-23.6431 37.097 103.539)" stroke="#98594D" stroke-width="5"/>
<circle cx="46.903" cy="78.4612" r="4.98" transform="rotate(-23.6431 46.903 78.4612)" stroke="#98594D" stroke-width="5"/>
<circle cx="54.5388" cy="95.903" r="4.98" transform="rotate(-23.6431 54.5388 95.903)" stroke="#98594D" stroke-width="5"/>
</g>
<defs>
<clipPath id="clip0_2_42">
<rect width="128" height="128" fill="white"/>
</clipPath>
</defs>
</svg>

<svg xmlns="http://www.w3.org/2000/svg" fill="none" viewBox="0 0 128 128"><style>.B{fill-rule:evenodd}.C{fill:#ff8702}.D{stroke-miterlimit:4.12}.E{stroke-linecap:round}.F{stroke-linejoin:round}</style><g clip-path="url(#C)"><g class="B"><path d="M105.22 62.64H19.85c0-15.61 6.19-29.58 15.93-38.63 3.68-3.43 9.67-5.96 14.04-4.8.39-.2-8.25-2.58-7.9-2.8 3.16-1.9 9.22-.68 14.64 1.3a26.28 26.28 0 0 1-7.99-8.9 29.19 29.19 0 0 1 19.3 6l-1.5-5.54c4.53 3 13.02 7.43 17.58 10.5 12.72 8.59 21.27 24.57 21.27 42.87z" class="C"/><path fill="#313131" d="M100.9 4.64c-2.97-1.57-21.2 5.1-28.6 17.48 3.3 4.65 10.3 3.98 14.65 2.88.14 1.86-.46 3.72-.6 5.35 1.36.52 1.8.57 4.02-.04.91 3.27 1.09 7.45 5.75 8.27 6.32-10.95 8.07-32.21 4.78-33.94zm-76.95.08c2.97-1.57 21.22 5.11 28.63 17.5-3.3 4.66-10.55 4.19-15.07 1.45.04 2.6.44 4.14 1.31 5.61a8.92 8.92 0 0 1-4.68-.62c1.02 2.94-.74 9.22-5.4 10.04-6.33-10.96-8.08-32.25-4.8-33.98z"/></g><mask id="A" width="31" height="35" x="72" y="4" maskUnits="userSpaceOnUse"><path fill="#fff" d="M100.82 4.72c-2.97-1.56-21.2 5.11-28.6 17.48 3.3 4.66 10.3 3.99 14.64 2.9.15 1.84-.45 3.7-.6 5.33 1.36.53 1.8.58 4.02-.03.91 3.26 1.1 7.44 5.75 8.26 6.32-10.95 8.08-32.2 4.79-33.94z"/></mask><g class="B" mask="url(#A)"><path fill="#ebdccc" d="M98.98 7.3c-1.09-.51-6.7 1.78-9.85 4.68-6.4 5.9-.65 13.81-17.21 12.69 3.66 8.99 11.63 12.36 21.18 14.63-1.63-11.33 5.62-11.9 6.66-24.04.39-4.58.09-7.54-.78-7.96z"/></g><mask id="B" width="31" height="35" x="22" y="4" maskUnits="userSpaceOnUse"><path fill="#fff" d="M24.03 4.8c2.98-1.56 21.23 5.12 28.64 17.5-3.3 4.66-10.55 4.2-15.07 1.46.03 2.6.44 4.13 1.3 5.61a8.92 8.92 0 0 1-4.68-.63c1.03 2.94-.73 9.22-5.4 10.05C22.5 27.81 20.75 6.53 24.04 4.8z"/></mask><g class="B" mask="url(#B)"><path fill="#ebdccc" d="M25.96 7.47c1.09-.51 6.7 1.78 9.86 4.69 6.41 5.9.65 13.83 17.23 12.7-3.66 9-11.64 12.38-21.2 14.64 1.63-11.34-5.63-11.9-6.67-24.06-.39-4.59-.09-7.55.78-7.97z"/></g><path fill="#313131" d="M48.78 48.33c3.13-1.5 4.68-5.75 3.46-9.5s-4.74-5.54-7.86-4.04-4.68 5.75-3.47 9.49 4.74 5.55 7.87 4.04zm29.82.33c2.98-1.42 4.45-5.47 3.3-9.02s-4.51-5.28-7.5-3.86-4.44 5.47-3.29 9.03 4.51 5.28 7.5 3.85z"/><g stroke="#000" stroke-width="5" class="D"><path fill="#ad7e52" d="M14.06 54.3v29.99H3.53l10.53-30z" class="B"/><path fill="#eacb99" d="M70.34 56.04H14.21v69.46h56.13V56.04zm44.38 0H72.95v69.46h41.77V56.04z"/></g><path fill="#ab8259" d="M72.95 56.04h41.77v69.46H72.95v-6.2c16.98-2 14.88-.84 24.9-6.33 2.8-1.53 4.96-2.22 5.11-3.53.74-6.08 6.72-4.72 6.67-9.28-.04-3.44-3.07-4.42-6.25-6.28-3.86-2.25-6.26-4.3-16.56-3.13-5.52.62-7.49.6-7.6-2.81-.3-9.48-2.42-10.14-6.27-15.7v-16.2z" class="B"/><path fill="#eacb99" stroke="#000" stroke-width="5.13" d="M115.43 55.99H73.66l9.23 28.6h41.76l-9.22-28.6z" class="D"/><g class="B"><path fill="#aa8259" d="M104.94 55.99h10.49l9.22 28.6H99.9c19.98-10.31 10.9-23.12 5.04-28.6z"/><path fill="#ab8259" d="M70.34 108.99v16.51H53.82c8.32-2.58 13.52-7.6 16.52-16.51zM43 125.5H14.2v-6.48c28 1.43 17.74 1.26 28.78 6.48z"/></g><path d="M31.32 52.55c3.67 16.33 15 15.98 15.22.16l-15.22-.15z" class="C"/><path stroke="#313131" stroke-width="4" d="M31.32 52.55c3.67 16.33 15 15.98 15.22.16" class="E F"/><path d="M59.62 52.55c.32 15.67 11.53 18.73 16.28.16l-16.28-.15z" class="C"/><path stroke="#313131" stroke-width="4" d="M59.62 52.55c.32 15.67 11.53 18.73 16.28.16" class="E F"/><g stroke="#98594d" stroke-width="5"><circle cx="29.46" cy="86.1" r="4.98" transform="rotate(336 29.46 86.1)"/><circle cx="37.1" cy="103.54" r="4.98" transform="rotate(336 37.1 103.54)"/><circle cx="46.9" cy="78.46" r="4.98" transform="rotate(336 46.9 78.46)"/><circle cx="54.54" cy="95.9" r="4.98" transform="rotate(336 54.54 95.9)"/></g></g><defs><clipPath id="C"><path fill="#fff" d="M0 0h128v128H0z"/></clipPath></defs></svg>
